assets/img/braze_icons/upload-cloud-02.svg

<svg fill="none" height="24" viewBox="0 0 24 24" width="24" xmlns="http://www.w3.org/2000/svg"><path clip-rule="evenodd" d="m9 21c-4.97056 0-9-4.0294-9-9 0-4.97056 4.02944-9 9-9 2.6837 0 5.0931 1.17464 6.742 3.03783.2493-.02502.5021-.03783.758-.03783 4.1421 0 7.5 3.35786 7.5 7.5 0 4.1421-3.3579 7.5-7.5 7.5zm-1.70711-7.2929c.39053.3905 1.02369.3905 1.41422 0l2.29289-2.2929v5.5858c0 .5523.4477 1 1 1s1-.4477 1-1v-5.5858l2.2929 2.2929c.3905.3905 1.0237.3905 1.4142 0s.3905-1.0237 0-1.4142l-4-4.00001c-.3905-.39052-1.0237-.39052-1.4142 0l-4.00001 4.00001c-.39052.3905-.39052 1.0237 0 1.4142z" fill="#801ed7" fill-rule="evenodd"/></svg>

<svg width="24" height="24" viewBox="0 0 24 24" fill="none" xmlns="http://www.w3.org/2000/svg">
<path fill-rule="evenodd" clip-rule="evenodd" d="M9 21C4.02944 21 0 16.9706 0 12C0 7.02944 4.02944 3 9 3C11.6837 3 14.0931 4.17464 15.742 6.03783C15.9913 6.01281 16.2441 6 16.5 6C20.6421 6 24 9.35786 24 13.5C24 17.6421 20.6421 21 16.5 21H9ZM7.29289 13.7071C7.68342 14.0976 8.31658 14.0976 8.70711 13.7071L11 11.4142L11 17C11 17.5523 11.4477 18 12 18C12.5523 18 13 17.5523 13 17L13 11.4142L15.2929 13.7071C15.6834 14.0976 16.3166 14.0976 16.7071 13.7071C17.0976 13.3166 17.0976 12.6834 16.7071 12.2929L12.7071 8.29289C12.3166 7.90237 11.6834 7.90237 11.2929 8.29289L7.29289 12.2929C6.90237 12.6834 6.90237 13.3166 7.29289 13.7071Z" fill="#801ED7"/>
</svg>
